!!!ONB: MCCC : IFC0058_01 : Extracted Monophonic Melody
!!!COM: Chopin, Frédéric
!!!OPR: Mazurkas, Op.67
!!!OMV: 1
!!!SCT: Op.67 (Posthumous)
!!!ODT: 1830///
**kern
*thru
*staff1
*clefG2
*k[f#c#g#d#a#]
*B:
*M3/4
*MM160
=1
8d#
8r
8F#
8B
8d#
8e
=2
8e#
16r
16G#
4e#
4f#
=3
8b
8r
8B
8b
8a#
8g#
=4
8e#
16r
16G#
4e#
4f#
=5
8g#
8r
8F#
8g#
8f#
8e
=6
8c##
16r
16D#
4c##
4d#
=7
8d#
8r
8E#
8d#
8d#
16r
16c#
=8
8g#
8b
4c#
4g#
=9
4dd#
8f#
8dd#
8.ee
16ee#
=10
8ee#
8g#
4ee#
4ff#
=11
4bb
8b
8bb
8aa#
8gg#
=12
8ee#
16r
16g#
4ee#
4ff#
=13
4gg#
8f#
8gg#
8ff#
16r
16ee
=14
8cc##
8d#
4cc##
4dd#
=15
4dd#
8e#
8dd#
8dd#
8cc#
=16
8b#
16r
16cc#
2ff#[
=17
8ff#]
8ee#
8dd#
8ee#
8ff#
8dd#
=18
8cc#
8ee#
4.ff#
8gg#
=19
8ff#
8ee#
8dd#
8ee#
8ff#
8dd#
=20
8cc#
8ee#
4.ff#
8ee
=21
8ee
8dd#
8cc#
8dd#
8ee
8cc#
=22
8b
8dd#
4.ee
8dd#
=23
8ee-
8dd
8cc#
8dd
8ee-
8cc-
=24
8b-
8dd
2ee-
=25
4.dd#
8cc#
8ee
8dd#
=26
8cc#
8b
8a#
8b
8cc#
8g#
=27
4.f#
8g#
8f#
8g#
=28
8f#
8a#
8b
8dd#
8gg#
8ff#
=29
4.dd#
8cc#
8ee
8dd#
=30
8cc#
8b
8a#
8b
8cc#
8g#
=31
4.f#
8g#
8f#
8cc#
=32
8f#
8g#
8f#
8cc#
8f
8cc#
=33
*k[f#c#g#]
8e
8cc#
2b
=34
8a
8f#
4g#
4a
=35
8e
8a
2g#
=36
8f#
8d
4f#
4e
=37
8e
8cc#
2b
=38
8a
8f#
4g#
4a
=39
8e
8a
2g#
=40
8f#
8d#
4f#
4e
=41
8f#
8d#
4f#
4e
=42
8f#
8d#
4f#
4e
=43
8e
8cc#
2b
=44
8aa
8ff#
4gg#
4aa
=45
8e
8a
2g#
=46
8ff#
8dd
4ff#
4ee
=47
8e
8cc#
2b
=48
8aa
8ff#
4gg#
4aa
=49
8e
8a
2g#
=50
8f#
8d#
4f#
4e
=51
8f#
8d#
4f#
4e
=52
8f#
8d#
4f#
4e
=53
4e
2d#
=54
4e
2d#
=55
4e
4d#
4d#
=56
4e
2d#
=57
4f#
2e#
=58
4f#
2e#
=59
12f#
12g#
12f#
4e#
4e#
=60
4f#
2e#
=61
4b
2a#
=62
4b
2a#
=63
12b
12cc#
12b
4a#
4a#
=64
12b
12cc#
12b
2a#
=65
4ee
2dd#
=66
12ee
12ff#
12ee
4dd#
4r
=67
2.r
=68
2.r
=69
*k[f#c#g#d#a#]
4F#
8d#
8F#
8d#
8e
=70
8e#
16r
16G#
4e#
4f#
=71
4b
8B
8b
8a#
8g#
=72
8e#
16r
16G#
4e#
4f#
=73
4g#
8F#
8g#
8f#
8e
=74
8c##
8D#
4c##
4d#
=75
4d#
8E#
8d#
8d#
16r
16c#
=76
8g#
8b
4c#
4g#
=77
4dd#
8f#
8dd#
8.ee
16ee#
=78
8ee#
8g#
4ee#
4ff#
=79
4bb
8b
8bb
8aa#
8gg#
=80
8ee#
16r
16g#
4ee#
4ff#
=81
4gg#
8f#
8gg#
8ff#
8ee
=82
8cc##
16r
16d#
4cc##
4dd#
=83
4dd#
8e#
8dd#
8.dd#
16cc#
=84
8gg#
16r
16g#
4gg#
4ff#
=85
4dd#
8e#
8dd#
8.dd#
16cc#
=86
8gg#
16r
16g#
4gg#
4ff#
=87
4dd#
2e#
=88
4dd#
2e#
=89
4dd#
2e
=90
4dd#
2e
=91
4.a#
4.a
=92
4.a
4.g#
=93
4.g#
4.g
=94
4.g
4.f#
=95
8f#
8dd#
2cc#
=96
8b
8g#
4a#
4b
=97
8a#
8f#
4g#
4a#
=98
8g#
8e
4f#
4g#
=99
8g#
8f#
2d#[
=100
2.d#]
=101
8g#
8f#
2d#
=102
4b
4bb
4r
==
*-
